assets/pan-svgrepo-com.svg

<?xml version="1.0" encoding="UTF-8"?>
<!-- Uploaded to: SVG Repo, www.svgrepo.com, Generator: SVG Repo Mixer Tools -->
<svg width="800px" height="800px" viewBox="0 0 512 512" version="1.1" xmlns="http://www.w3.org/2000/svg" xmlns:xlink="http://www.w3.org/1999/xlink">
    <title>pan</title>
    <g id="Page-1" stroke="none" stroke-width="1" fill="none" fill-rule="evenodd">
        <g id="drop" fill="#000000" transform="translate(42.666667, 42.666667)">
            <path d="M234.666667,256 L234.666667,341.333333 L277.333333,341.333333 L213.333333,426.666667 L149.333333,341.333333 L192,341.333333 L192,256 L234.666667,256 Z M341.333333,149.333333 L426.666667,213.333333 L341.333333,277.333333 L341.333333,234.666667 L256,234.666667 L256,192 L341.333333,192 L341.333333,149.333333 Z M85.3333333,149.333333 L85.3333333,192 L170.666667,192 L170.666667,234.666667 L85.3333333,234.666667 L85.3333333,277.333333 L3.55271368e-14,213.333333 L85.3333333,149.333333 Z M213.333333,3.55271368e-14 L277.333333,85.3333333 L234.666667,85.3333333 L234.666667,170.666667 L192,170.666667 L192,85.3333333 L149.333333,85.3333333 L213.333333,3.55271368e-14 Z" id="Combined-Shape">

</path>
        </g>
    </g>
</svg>

<?xml version="1.0" encoding="UTF-8" standalone="no"?>
<!-- Uploaded to: SVG Repo, www.svgrepo.com, Generator: SVG Repo Mixer Tools -->

<svg
   width="800px"
   height="800px"
   viewBox="0 0 512 512"
   version="1.1"
   id="svg1"
   sodipodi:docname="pan-svgrepo-com.svg"
   inkscape:version="1.4 (86a8ad7, 2024-10-11)"
   xmlns:inkscape="http://www.inkscape.org/namespaces/inkscape"
   xmlns:sodipodi="http://sodipodi.sourceforge.net/DTD/sodipodi-0.dtd"
   xmlns="http://www.w3.org/2000/svg"
   xmlns:svg="http://www.w3.org/2000/svg">
  <defs
     id="defs1" />
  <sodipodi:namedview
     id="namedview1"
     pagecolor="#ffffff"
     bordercolor="#000000"
     borderopacity="0.25"
     inkscape:showpageshadow="2"
     inkscape:pageopacity="0.0"
     inkscape:pagecheckerboard="0"
     inkscape:deskcolor="#d1d1d1"
     inkscape:zoom="0.96625"
     inkscape:cx="400.51746"
     inkscape:cy="400"
     inkscape:window-width="1920"
     inkscape:window-height="991"
     inkscape:window-x="-9"
     inkscape:window-y="-9"
     inkscape:window-maximized="1"
     inkscape:current-layer="svg1" />
  <title
     id="title1">pan</title>
  <g
     id="Page-1"
     stroke="none"
     stroke-width="1"
     fill="none"
     fill-rule="evenodd"
     style="fill:#ffffff;fill-opacity:1;stroke:#ffffff;stroke-width:6.4;stroke-dasharray:none;stroke-opacity:1"
     transform="matrix(1.102988,0,0,1.102988,-26.364939,-26.364939)">
    <g
       id="drop"
       fill="#000000"
       transform="translate(42.666667,42.666667)"
       style="fill:#ffffff;fill-opacity:1;stroke:#ffffff;stroke-width:6.4;stroke-dasharray:none;stroke-opacity:1">
      <path
         d="m 234.66667,256 v 85.33333 h 42.66666 l -64,85.33334 -64,-85.33334 H 192 V 256 Z m 106.66666,-106.66667 85.33334,64 -85.33334,64 V 234.66667 H 256 V 192 h 85.33333 z m -255.999997,0 V 192 h 85.333337 v 42.66667 H 85.333333 v 42.66666 L 0,213.33333 Z M 213.33333,0 l 64,85.333333 H 234.66667 V 170.66667 H 192 V 85.333333 h -42.66667 z"
         id="Combined-Shape"
         style="fill:#ffffff;fill-opacity:1;stroke:#ffffff;stroke-width:6.4;stroke-dasharray:none;stroke-opacity:1" />
    </g>
  </g>
</svg>
